X: 49
M:2/4
L:1/16
K:A
u(AB) |\
cAFA .E2(eg) | aefa edcB | cAFA .E2(AB) | cABc .A2(AB) |
cAFA .E2(eg) | aefa edcB | cAFA .E2(Ac) | cABG A2  :|
|:E2 |\


